images/corwin-logo-reverse.svg

<svg height="77" viewBox="0 0 168.8 77" width="168.8" xmlns="http://www.w3.org/2000/svg"><path d="m145.21 42.51a2.27 2.27 0 1 1 2.27-2.27 2.25 2.25 0 0 1 -2.27 2.27" fill="#bdd431"/><g fill="#fff"><path d="m145.21 67.89a1.89 1.89 0 0 1 -1.89-1.89v-18.56a1.89 1.89 0 0 1 3.78 0v18.56a1.89 1.89 0 0 1 -1.89 1.89"/><path d="m64.11 68h-.11a7.27 7.27 0 0 1 -7.28-7.24v-8.03a7.3 7.3 0 0 1 7.28-7.28h.15a7.26 7.26 0 0 1 6.36 3.77 1.89 1.89 0 1 1 -3.35 1.78 3.47 3.47 0 0 0 -3-1.81h-.16a3.48 3.48 0 0 0 -3.47 3.5v8.05a3.48 3.48 0 0 0 3.47 3.51h.15a3.43 3.43 0 0 0 3-1.85 1.9 1.9 0 1 1 3.35 1.81 7.29 7.29 0 0 1 -6.39 3.79"/><path d="m81.73 68h-.15a7.23 7.23 0 0 1 -7.24-7.24v-8.03a7.27 7.27 0 0 1 7.24-7.28h.15a7.26 7.26 0 0 1 7.27 7.28v8.05a7.23 7.23 0 0 1 -7.27 7.22m3.47-15.29a3.48 3.48 0 0 0 -3.47-3.5h-.15a3.48 3.48 0 0 0 -3.47 3.5v8.05a3.48 3.48 0 0 0 3.47 3.47h.15a3.48 3.48 0 0 0 3.47-3.47z"/><path d="m104.7 49.84-.65-.23a4.26 4.26 0 0 0 -3.89.54 4.2 4.2 0 0 0 -1.77 3.47v12.38a1.91 1.91 0 0 1 -3.81 0v-12.38a8 8 0 0 1 10.75-7.55l.66.23a1.86 1.86 0 0 1 1.15 2.39 1.9 1.9 0 0 1 -2.43 1.16"/><path d="m166.87 67.83a1.9 1.9 0 0 1 -1.87-1.93v-13.17a3.48 3.48 0 0 0 -3.47-3.5h-.15a3.51 3.51 0 0 0 -3.47 3.5v13.17a1.89 1.89 0 1 1 -3.77 0v-13.17a7.27 7.27 0 0 1 7.24-7.28h.15a7.3 7.3 0 0 1 7.28 7.28v13.17a1.91 1.91 0 0 1 -1.93 1.93"/><path d="m125.5 47.5a1.87 1.87 0 1 0 -3.74 0v13.17a3.51 3.51 0 0 1 -3.5 3.5h-.15a3.51 3.51 0 0 1 -3.47-3.5v-13.17a1.89 1.89 0 1 0 -3.78 0v13.17a7.27 7.27 0 0 0 7.24 7.28h.15a7.19 7.19 0 0 0 5.37-2.41 7.15 7.15 0 0 0 5.38 2.41h.15a7.3 7.3 0 0 0 7.28-7.28v-13.17a1.91 1.91 0 1 0 -3.81 0v13.17a3.48 3.48 0 0 1 -3.47 3.5h-.15a3.52 3.52 0 0 1 -3.48-3.5z"/><path d="m25.31 38.32a13.68 13.68 0 0 1 1.41-6 22.57 22.57 0 1 0 18.08 18.46 13.72 13.72 0 0 1 -19.49-12.46"/></g><path d="m52.79 38.32a13.73 13.73 0 0 0 -26.07-6 22.56 22.56 0 0 1 18.08 18.46 13.73 13.73 0 0 0 8-12.47" fill="#bdd431"/><path d="m23.64 18.48a10.11 10.11 0 1 1 -10.11-10.11 10.11 10.11 0 0 1 10.11 10.11" fill="#ee8322"/><path d="m31.59 4.93a4.93 4.93 0 1 1 -4.92-4.93 4.93 4.93 0 0 1 4.93 4.93" fill="#fff"/></svg>

<svg xmlns="http://www.w3.org/2000/svg" width="168.8" height="77" viewBox="0 0 168.8 77">
  <defs>
    <style>
      .cls-1 {
        fill: #bdd431;
      }

      .cls-2 {
        fill: #fff;
      }

      .cls-3 {
        fill: #ee8322;
      }
    </style>
  </defs>
  <title>Asset 1</title>
  <g id="Layer_2" data-name="Layer 2">
    <g id="Layer_2-2" data-name="Layer 2">
      <g>
        <path class="cls-1" d="M145.21,42.51a2.27,2.27,0,1,1,2.27-2.27,2.25,2.25,0,0,1-2.27,2.27"/>
        <path class="cls-2" d="M145.21,67.89A1.89,1.89,0,0,1,143.32,66V47.44a1.89,1.89,0,0,1,3.78,0V66a1.89,1.89,0,0,1-1.89,1.89"/>
        <path class="cls-2" d="M64.11,68H64a7.27,7.27,0,0,1-7.28-7.24V52.73A7.3,7.3,0,0,1,64,45.45h.15a7.26,7.26,0,0,1,6.36,3.77A1.89,1.89,0,1,1,67.16,51a3.47,3.47,0,0,0-3-1.81H64a3.48,3.48,0,0,0-3.47,3.5v8.05A3.48,3.48,0,0,0,64,64.25h.15a3.43,3.43,0,0,0,3-1.85,1.9,1.9,0,1,1,3.35,1.81A7.29,7.29,0,0,1,64.11,68"/>
        <path class="cls-2" d="M81.73,68h-.15a7.23,7.23,0,0,1-7.24-7.24V52.73a7.27,7.27,0,0,1,7.24-7.28h.15A7.26,7.26,0,0,1,89,52.73v8.05A7.23,7.23,0,0,1,81.73,68m3.47-15.29a3.48,3.48,0,0,0-3.47-3.5h-.15a3.48,3.48,0,0,0-3.47,3.5v8.05a3.48,3.48,0,0,0,3.47,3.47h.15a3.48,3.48,0,0,0,3.47-3.47Z"/>
        <path class="cls-2" d="M104.7,49.84l-.65-.23a4.26,4.26,0,0,0-3.89.54,4.2,4.2,0,0,0-1.77,3.47V66a1.91,1.91,0,0,1-3.81,0V53.62a8,8,0,0,1,10.75-7.55l.66.23a1.86,1.86,0,0,1,1.15,2.39,1.9,1.9,0,0,1-2.43,1.16"/>
        <path class="cls-2" d="M166.87,67.83A1.9,1.9,0,0,1,165,65.9V52.73a3.48,3.48,0,0,0-3.47-3.5h-.15a3.51,3.51,0,0,0-3.47,3.5V65.9a1.89,1.89,0,1,1-3.77,0V52.73a7.27,7.27,0,0,1,7.24-7.28h.15a7.3,7.3,0,0,1,7.28,7.28V65.9a1.91,1.91,0,0,1-1.93,1.93"/>
        <path class="cls-2" d="M125.5,47.5a1.87,1.87,0,1,0-3.74,0V60.67a3.51,3.51,0,0,1-3.5,3.5h-.15a3.51,3.51,0,0,1-3.47-3.5V47.5a1.89,1.89,0,1,0-3.78,0V60.67a7.27,7.27,0,0,0,7.24,7.28h.15a7.19,7.19,0,0,0,5.37-2.41A7.15,7.15,0,0,0,129,67.95h.15a7.3,7.3,0,0,0,7.28-7.28V47.5a1.91,1.91,0,1,0-3.81,0V60.67a3.48,3.48,0,0,1-3.47,3.5H129a3.52,3.52,0,0,1-3.48-3.5Z"/>
        <path class="cls-2" d="M25.31,38.32a13.68,13.68,0,0,1,1.41-6A22.57,22.57,0,1,0,44.8,50.78,13.72,13.72,0,0,1,25.31,38.32"/>
        <path class="cls-1" d="M52.79,38.32a13.73,13.73,0,0,0-26.07-6A22.56,22.56,0,0,1,44.8,50.78a13.73,13.73,0,0,0,8-12.47"/>
        <path class="cls-3" d="M23.64,18.48A10.11,10.11,0,1,1,13.53,8.37,10.11,10.11,0,0,1,23.64,18.48"/>
        <path class="cls-2" d="M31.59,4.93A4.93,4.93,0,1,1,26.67,0a4.93,4.93,0,0,1,4.93,4.93"/>
      </g>
    </g>
  </g>
</svg>
